X:500
T:Keresel
Z:Jack Campin, http://www.campin.me.uk/
F:Jack Campin's Nine-Note Tunebook
% last edit 03-02-2013
O:Csango Hungarian dance tune from Moldavia
M:2/2
L:1/8
Q:1/2=90
K:G
BGDG     BGDG|ABcA {BA}B4  |AFDF     AFDF|{BA}BGAF G4:|
D2GF {EF}E2D2|DFAF     GAB2|D2GF {EF}E2D2|    DFAF G4:|

